svg/emoji_u1f3db.svg

<svg enable-background="new 0 0 128 128" viewBox="0 0 128 128" xmlns="http://www.w3.org/2000/svg"><rect x="20" y="36" width="88" height="80" fill="#004D40"/><rect x="16" y="48" width="20" height="60" fill="#80CBC4"/><linearGradient id="i" x1="26" x2="26" y1="51.667" y2="61.263" gradientUnits="userSpaceOnUse"><stop stop-color="#009688" offset="0"/><stop stop-color="#009688" stop-opacity="0" offset="1"/></linearGradient><rect x="16" y="48" width="20" height="20" fill="url(#i)"/><linearGradient id="h" x1="26" x2="26" y1="63.667" y2="76.184" gradientTransform="matrix(-1 0 0 -1 52 164)" gradientUnits="userSpaceOnUse"><stop stop-color="#009688" offset="0"/><stop stop-color="#009688" stop-opacity="0" offset="1"/></linearGradient><polygon points="16 84 36 84 36 104 16 104" fill="url(#h)"/><g opacity=".2"><polygon points="24.67 48 21.67 48 21.67 104 24.67 104" fill="#424242"/></g><g opacity=".2"><polygon points="30.33 48 27.33 48 27.33 108.75 30.33 108.75" fill="#424242"/></g><g opacity=".2"><polygon points="19 48 16 48 16 104 19 104" fill="#424242"/></g><g opacity=".2"><polygon points="36 48 33 48 33 104 36 104" fill="#424242"/></g><rect x="54" y="48" width="20" height="60" fill="#80CBC4"/><linearGradient id="g" x1="64" x2="64" y1="51.667" y2="61.263" gradientUnits="userSpaceOnUse"><stop stop-color="#009688" offset="0"/><stop stop-color="#009688" stop-opacity="0" offset="1"/></linearGradient><rect x="54" y="48" width="20" height="20" fill="url(#g)"/><linearGradient id="f" x1="-12" x2="-12" y1="63.667" y2="76.184" gradientTransform="matrix(-1 0 0 -1 52 164)" gradientUnits="userSpaceOnUse"><stop stop-color="#009688" offset="0"/><stop stop-color="#009688" stop-opacity="0" offset="1"/></linearGradient><polygon points="54 84 74 84 74 104 54 104" fill="url(#f)"/><g opacity=".2"><polygon points="62.67 48 59.67 48 59.67 104 62.67 104" fill="#424242"/></g><g opacity=".2"><polygon points="68.33 48 65.33 48 65.33 108.75 68.33 108.75" fill="#424242"/></g><g opacity=".2"><polygon points="57 48 54 48 54 104 57 104" fill="#424242"/></g><g opacity=".2"><polygon points="74 48 71 48 71 104 74 104" fill="#424242"/></g><rect x="92" y="48" width="20" height="60" fill="#80CBC4"/><linearGradient id="e" x1="102" x2="102" y1="51.667" y2="61.263" gradientUnits="userSpaceOnUse"><stop stop-color="#009688" offset="0"/><stop stop-color="#009688" stop-opacity="0" offset="1"/></linearGradient><rect x="92" y="48" width="20" height="20" fill="url(#e)"/><linearGradient id="d" x1="-50" x2="-50" y1="63.667" y2="76.184" gradientTransform="matrix(-1 0 0 -1 52 164)" gradientUnits="userSpaceOnUse"><stop stop-color="#009688" offset="0"/><stop stop-color="#009688" stop-opacity="0" offset="1"/></linearGradient><polygon points="92 84 112 84 112 104 92 104" fill="url(#d)"/><g opacity=".2"><polygon points="100.67 48 97.67 48 97.67 104 100.67 104" fill="#424242"/></g><g opacity=".2"><polygon points="106.33 48 103.33 48 103.33 108.75 106.33 108.75" fill="#424242"/></g><g opacity=".2"><polygon points="95 48 92 48 92 104 95 104" fill="#424242"/></g><g opacity=".2"><polygon points="112 48 109 48 109 104 112 104" fill="#424242"/></g><linearGradient id="c" x1="26" x2="26" y1="50" y2="41.991" gradientUnits="userSpaceOnUse"><stop stop-color="#80CBC4" offset="0"/><stop stop-color="#65C0B7" offset=".3382"/><stop stop-color="#26A69A" offset=".9957"/></linearGradient><path d="m12 40v5c0 3.87 3.13 7 7 7h14c3.87 0 7-3.13 7-7v-5h-28z" fill="url(#c)"/><g opacity=".2"><path d="m37 43v2c0 2.21-1.79 4-4 4h-14c-2.21 0-4-1.79-4-4v-2h22m3-3h-28v5c0 3.87 3.13 7 7 7h14c3.87 0 7-3.13 7-7v-5z" fill="#424242"/></g><linearGradient id="b" x1="64" x2="64" y1="50" y2="41.991" gradientUnits="userSpaceOnUse"><stop stop-color="#80CBC4" offset="0"/><stop stop-color="#65C0B7" offset=".3382"/><stop stop-color="#26A69A" offset=".9957"/></linearGradient><path d="m50 40v5c0 3.87 3.13 7 7 7h14c3.87 0 7-3.13 7-7v-5h-28z" fill="url(#b)"/><g opacity=".2"><path d="m75 43v2c0 2.21-1.79 4-4 4h-14c-2.21 0-4-1.79-4-4v-2h22m3-3h-28v5c0 3.87 3.13 7 7 7h14c3.87 0 7-3.13 7-7v-5z" fill="#424242"/></g><linearGradient id="a" x1="102" x2="102" y1="50" y2="41.991" gradientUnits="userSpaceOnUse"><stop stop-color="#80CBC4" offset="0"/><stop stop-color="#65C0B7" offset=".3382"/><stop stop-color="#26A69A" offset=".9957"/></linearGradient><path d="m88 40v5c0 3.87 3.13 7 7 7h14c3.87 0 7-3.13 7-7v-5h-28z" fill="url(#a)"/><g opacity=".2"><path d="m113 43v2c0 2.21-1.79 4-4 4h-14c-2.21 0-4-1.79-4-4v-2h22m3-3h-28v5c0 3.87 3.13 7 7 7h14c3.87 0 7-3.13 7-7v-5z" fill="#424242"/></g><linearGradient id="p" x1="26" x2="26" y1="102" y2="93.991" gradientTransform="matrix(-1 0 0 -1 128 204)" gradientUnits="userSpaceOnUse"><stop stop-color="#80CBC4" offset="0"/><stop stop-color="#65C0B7" offset=".3382"/><stop stop-color="#26A69A" offset=".9957"/></linearGradient><path d="m116 112v-5c0-3.87-3.13-7-7-7h-14c-3.87 0-7 3.13-7 7v5h28z" fill="url(#p)"/><g opacity=".2"><path d="m109 103c2.21 0 4 1.79 4 4v2h-22v-2c0-2.21 1.79-4 4-4h14m0-3h-14c-3.87 0-7 3.13-7 7v5h28v-5c0-3.87-3.13-7-7-7z" fill="#424242"/></g><linearGradient id="o" x1="64" x2="64" y1="102" y2="93.991" gradientTransform="matrix(-1 0 0 -1 128 204)" gradientUnits="userSpaceOnUse"><stop stop-color="#80CBC4" offset="0"/><stop stop-color="#65C0B7" offset=".3382"/><stop stop-color="#26A69A" offset=".9957"/></linearGradient><path d="m78 112v-5c0-3.87-3.13-7-7-7h-14c-3.87 0-7 3.13-7 7v5h28z" fill="url(#o)"/><g opacity=".2"><path d="m71 103c2.21 0 4 1.79 4 4v2h-22v-2c0-2.21 1.79-4 4-4h14m0-3h-14c-3.87 0-7 3.13-7 7v5h28v-5c0-3.87-3.13-7-7-7z" fill="#424242"/></g><linearGradient id="n" x1="102" x2="102" y1="102" y2="93.991" gradientTransform="matrix(-1 0 0 -1 128 204)" gradientUnits="userSpaceOnUse"><stop stop-color="#80CBC4" offset="0"/><stop stop-color="#65C0B7" offset=".3382"/><stop stop-color="#26A69A" offset=".9957"/></linearGradient><path d="m40 112v-5c0-3.87-3.13-7-7-7h-14c-3.87 0-7 3.13-7 7v5h28z" fill="url(#n)"/><g opacity=".2"><path d="m33 103c2.21 0 4 1.79 4 4v2h-22v-2c0-2.21 1.79-4 4-4h14m0-3h-14c-3.87 0-7 3.13-7 7v5h28v-5c0-3.87-3.13-7-7-7z" fill="#424242"/></g><linearGradient id="m" x1="64" x2="64" y1="111" y2="118.83" gradientUnits="userSpaceOnUse"><stop stop-color="#80CBC4" offset="0"/><stop stop-color="#65C0B7" offset=".3397"/><stop stop-color="#26A69A" offset="1"/></linearGradient><path d="M120,120H8v-8c0-2.21,1.79-4,4-4h104c2.21,0,4,1.79,4,4V120z" fill="url(#m)"/><radialGradient id="l" cx="63.667" cy="4.3333" r="53.207" gradientTransform="matrix(4.4999e-11 1 -1.2216 5.4973e-11 68.96 -59.333)" gradientUnits="userSpaceOnUse"><stop stop-color="#80CBC4" offset="0"/><stop stop-color="#7CC9C2" offset=".2139"/><stop stop-color="#70C5BD" offset=".4239"/><stop stop-color="#5DBCB3" offset=".6322"/><stop stop-color="#41B1A7" offset=".8385"/><stop stop-color="#26A69A" offset="1"/></radialGradient><path d="M56.42,5.79L6.21,30.89C4.86,31.57,4,32.96,4,34.47V40c0,2.21,1.79,4,4,4h112 c2.21,0,4-1.79,4-4v-5.53c0-1.52-0.86-2.9-2.21-3.58L71.58,5.79C69.22,4.61,66.63,4,64,4h0C61.37,4,58.78,4.61,56.42,5.79z" fill="url(#l)"/><linearGradient id="k" x1="64" x2="64" y1="3.8222" y2="48.385" gradientUnits="userSpaceOnUse"><stop stop-color="#B2DFDB" offset="0"/><stop stop-color="#97D4CE" offset=".3061"/><stop stop-color="#51B8AE" offset=".962"/><stop stop-color="#4DB6AC" offset="1"/></linearGradient><path d="m106.53 32.21-38.53-19.27c-1.24-0.62-2.61-0.94-4-0.94s-2.76 0.32-4 0.94l-38.53 19.27c-1.89 0.94-1.22 3.79 0.89 3.79h83.28c2.11 0 2.78-2.85 0.89-3.79z" fill="url(#k)"/><linearGradient id="j" x1="64" x2="64" y1="115" y2="123.69" gradientUnits="userSpaceOnUse"><stop stop-color="#80CBC4" offset="0"/><stop stop-color="#7CC9C2" offset=".2139"/><stop stop-color="#70C5BD" offset=".4239"/><stop stop-color="#5DBCB3" offset=".6322"/><stop stop-color="#41B1A7" offset=".8385"/><stop stop-color="#26A69A" offset="1"/></linearGradient><path d="M124,124H4v-4c0-2.21,1.79-4,4-4h112c2.21,0,4,1.79,4,4V124z" fill="url(#j)"/><g opacity=".2"><path d="m116 111c0.55 0 1 0.45 1 1v7h3c0.55 0 1 0.45 1 1v1h-114v-1c0-0.55 0.45-1 1-1h3v-7c0-0.55 0.45-1 1-1h104m0-3h-104c-2.21 0-4 1.79-4 4v4c-2.21 0-4 1.79-4 4v4h120v-4c0-2.21-1.79-4-4-4v-4c0-2.21-1.79-4-4-4z" fill="#424242"/></g><g opacity=".2"><path d="M64,7c2.15,0,4.31,0.51,6.24,1.47l50.21,25.11c0.34,0.17,0.55,0.51,0.55,0.89V40 c0,0.55-0.45,1-1,1H8c-0.55,0-1-0.45-1-1v-5.53c0-0.38,0.21-0.72,0.55-0.89L57.76,8.47C59.69,7.51,61.85,7,64,7 M64,4 c-2.63,0-5.22,0.61-7.58,1.79L6.21,30.89C4.86,31.57,4,32.96,4,34.47V40c0,2.21,1.79,4,4,4h112c2.21,0,4-1.79,4-4v-5.53 c0-1.52-0.86-2.9-2.21-3.58L71.58,5.79C69.22,4.61,66.63,4,64,4L64,4z" fill="#424242"/></g></svg>

<svg width="128" height="128" style="enable-background:new 0 0 128 128;" xmlns="http://www.w3.org/2000/svg" xmlns:xlink="http://www.w3.org/1999/xlink">
  <g id="Layer_2">
    <rect height="80" style="fill:#004D40;" width="88" x="20" y="36"/>
  </g>
  <g id="_x31_">
    <g>
      <rect height="60" style="fill:#80CBC4;" width="20" x="16" y="48"/>
      <g>
        <linearGradient id="SVGID_1_" gradientUnits="userSpaceOnUse" x1="26" x2="26" y1="51.6667" y2="61.263">
          <stop offset="0" style="stop-color:#009688"/>
          <stop offset="1" style="stop-color:#009688;stop-opacity:0"/>
        </linearGradient>
        <rect height="20" style="fill:url(#SVGID_1_);" width="20" x="16" y="48"/>
        <linearGradient id="SVGID_2_" gradientTransform="matrix(-1 0 0 -1 52 164)" gradientUnits="userSpaceOnUse" x1="26" x2="26" y1="63.6667" y2="76.1844">
          <stop offset="0" style="stop-color:#009688"/>
          <stop offset="1" style="stop-color:#009688;stop-opacity:0"/>
        </linearGradient>
        <polygon points="16,84 36,84 36,104 16,104 " style="fill:url(#SVGID_2_);"/>
      </g>
      <g style="opacity:0.2;">
        <polygon points="24.67,48 21.67,48 21.67,104 24.67,104 24.67,48 " style="fill:#424242;"/>
      </g>
      <g style="opacity:0.2;">
        <polygon points="30.33,48 27.33,48 27.33,108.75 30.33,108.75 30.33,48 " style="fill:#424242;"/>
      </g>
      <g style="opacity:0.2;">
        <polygon points="19,48 16,48 16,104 19,104 19,48 " style="fill:#424242;"/>
      </g>
      <g style="opacity:0.2;">
        <polygon points="36,48 33,48 33,104 36,104 36,48 " style="fill:#424242;"/>
      </g>
      <g>
        <rect height="60" style="fill:#80CBC4;" width="20" x="54" y="48"/>
        <g>
          <linearGradient id="SVGID_3_" gradientUnits="userSpaceOnUse" x1="64" x2="64" y1="51.6667" y2="61.263">
            <stop offset="0" style="stop-color:#009688"/>
            <stop offset="1" style="stop-color:#009688;stop-opacity:0"/>
          </linearGradient>
          <rect height="20" style="fill:url(#SVGID_3_);" width="20" x="54" y="48"/>
          <linearGradient id="SVGID_4_" gradientTransform="matrix(-1 0 0 -1 52 164)" gradientUnits="userSpaceOnUse" x1="-12" x2="-12" y1="63.6667" y2="76.1844">
            <stop offset="0" style="stop-color:#009688"/>
            <stop offset="1" style="stop-color:#009688;stop-opacity:0"/>
          </linearGradient>
          <polygon points="54,84 74,84 74,104 54,104 " style="fill:url(#SVGID_4_);"/>
        </g>
        <g style="opacity:0.2;">
          <polygon points="62.67,48 59.67,48 59.67,104 62.67,104 62.67,48 " style="fill:#424242;"/>
        </g>
        <g style="opacity:0.2;">
          <polygon points="68.33,48 65.33,48 65.33,108.75 68.33,108.75 68.33,48 " style="fill:#424242;"/>
        </g>
        <g style="opacity:0.2;">
          <polygon points="57,48 54,48 54,104 57,104 57,48 " style="fill:#424242;"/>
        </g>
        <g style="opacity:0.2;">
          <polygon points="74,48 71,48 71,104 74,104 74,48 " style="fill:#424242;"/>
        </g>
      </g>
      <g>
        <rect height="60" style="fill:#80CBC4;" width="20" x="92" y="48"/>
        <g>
          <linearGradient id="SVGID_5_" gradientUnits="userSpaceOnUse" x1="102" x2="102" y1="51.6667" y2="61.263">
            <stop offset="0" style="stop-color:#009688"/>
            <stop offset="1" style="stop-color:#009688;stop-opacity:0"/>
          </linearGradient>
          <rect height="20" style="fill:url(#SVGID_5_);" width="20" x="92" y="48"/>
          <linearGradient id="SVGID_6_" gradientTransform="matrix(-1 0 0 -1 52 164)" gradientUnits="userSpaceOnUse" x1="-50" x2="-50" y1="63.6667" y2="76.1844">
            <stop offset="0" style="stop-color:#009688"/>
            <stop offset="1" style="stop-color:#009688;stop-opacity:0"/>
          </linearGradient>
          <polygon points="92,84 112,84 112,104 92,104 " style="fill:url(#SVGID_6_);"/>
        </g>
        <g style="opacity:0.2;">
          <polygon points="100.67,48 97.67,48 97.67,104 100.67,104 100.67,48 " style="fill:#424242;"/>
        </g>
        <g style="opacity:0.2;">
          <polygon points="106.33,48 103.33,48 103.33,108.75 106.33,108.75 106.33,48 " style="fill:#424242;"/>
        </g>
        <g style="opacity:0.2;">
          <polygon points="95,48 92,48 92,104 95,104 95,48 " style="fill:#424242;"/>
        </g>
        <g style="opacity:0.2;">
          <polygon points="112,48 109,48 109,104 112,104 112,48 " style="fill:#424242;"/>
        </g>
      </g>
      <g>
        <linearGradient id="SVGID_7_" gradientUnits="userSpaceOnUse" x1="26" x2="26" y1="50" y2="41.9913">
          <stop offset="0" style="stop-color:#80CBC4"/>
          <stop offset="0.3382" style="stop-color:#65C0B7"/>
          <stop offset="0.9957" style="stop-color:#26A69A"/>
        </linearGradient>
        <path d="M12,40v4v1c0,3.87,3.13,7,7,7h14c3.87,0,7-3.13,7-7v-1v-4H12z" style="fill:url(#SVGID_7_);"/>
        <g style="opacity:0.2;">
          <path d="M37,43v1v1c0,2.21-1.79,4-4,4H19c-2.21,0-4-1.79-4-4v-1v-1H37 M40,40H12v4v1c0,3.87,3.13,7,7,7 h14c3.87,0,7-3.13,7-7v-1V40L40,40z" style="fill:#424242;"/>
        </g>
      </g>
      <g>
        <linearGradient id="SVGID_8_" gradientUnits="userSpaceOnUse" x1="64" x2="64" y1="50" y2="41.9913">
          <stop offset="0" style="stop-color:#80CBC4"/>
          <stop offset="0.3382" style="stop-color:#65C0B7"/>
          <stop offset="0.9957" style="stop-color:#26A69A"/>
        </linearGradient>
        <path d="M50,40v4v1c0,3.87,3.13,7,7,7h14c3.87,0,7-3.13,7-7v-1v-4H50z" style="fill:url(#SVGID_8_);"/>
        <g style="opacity:0.2;">
          <path d="M75,43v1v1c0,2.21-1.79,4-4,4H57c-2.21,0-4-1.79-4-4v-1v-1H75 M78,40H50v4v1c0,3.87,3.13,7,7,7 h14c3.87,0,7-3.13,7-7v-1V40L78,40z" style="fill:#424242;"/>
        </g>
      </g>
      <g>
        <linearGradient id="SVGID_9_" gradientUnits="userSpaceOnUse" x1="102" x2="102" y1="50" y2="41.9913">
          <stop offset="0" style="stop-color:#80CBC4"/>
          <stop offset="0.3382" style="stop-color:#65C0B7"/>
          <stop offset="0.9957" style="stop-color:#26A69A"/>
        </linearGradient>
        <path d="M88,40v4v1c0,3.87,3.13,7,7,7h14c3.87,0,7-3.13,7-7v-1v-4H88z" style="fill:url(#SVGID_9_);"/>
        <g style="opacity:0.2;">
          <path d="M113,43v1v1c0,2.21-1.79,4-4,4H95c-2.21,0-4-1.79-4-4v-1v-1H113 M116,40H88v4v1 c0,3.87,3.13,7,7,7h14c3.87,0,7-3.13,7-7v-1V40L116,40z" style="fill:#424242;"/>
        </g>
      </g>
      <g>
        <linearGradient id="SVGID_10_" gradientTransform="matrix(-1 0 0 -1 128 204)" gradientUnits="userSpaceOnUse" x1="26" x2="26" y1="102" y2="93.9913">
          <stop offset="0" style="stop-color:#80CBC4"/>
          <stop offset="0.3382" style="stop-color:#65C0B7"/>
          <stop offset="0.9957" style="stop-color:#26A69A"/>
        </linearGradient>
        <path d="M116,112v-4v-1c0-3.87-3.13-7-7-7H95c-3.87,0-7,3.13-7,7v1v4H116z" style="fill:url(#SVGID_10_);"/>
        <g style="opacity:0.2;">
          <path d="M109,103c2.21,0,4,1.79,4,4v1v1H91v-1v-1c0-2.21,1.79-4,4-4H109 M109,100H95c-3.87,0-7,3.13-7,7 v1v4h28v-4v-1C116,103.13,112.87,100,109,100L109,100z" style="fill:#424242;"/>
        </g>
      </g>
      <g>
        <linearGradient id="SVGID_11_" gradientTransform="matrix(-1 0 0 -1 128 204)" gradientUnits="userSpaceOnUse" x1="64" x2="64" y1="102" y2="93.9913">
          <stop offset="0" style="stop-color:#80CBC4"/>
          <stop offset="0.3382" style="stop-color:#65C0B7"/>
          <stop offset="0.9957" style="stop-color:#26A69A"/>
        </linearGradient>
        <path d="M78,112v-4v-1c0-3.87-3.13-7-7-7H57c-3.87,0-7,3.13-7,7v1v4H78z" style="fill:url(#SVGID_11_);"/>
        <g style="opacity:0.2;">
          <path d="M71,103c2.21,0,4,1.79,4,4v1v1H53v-1v-1c0-2.21,1.79-4,4-4H71 M71,100H57c-3.87,0-7,3.13-7,7v1v4 h28v-4v-1C78,103.13,74.87,100,71,100L71,100z" style="fill:#424242;"/>
        </g>
      </g>
      <g>
        <linearGradient id="SVGID_12_" gradientTransform="matrix(-1 0 0 -1 128 204)" gradientUnits="userSpaceOnUse" x1="102" x2="102" y1="102" y2="93.9913">
          <stop offset="0" style="stop-color:#80CBC4"/>
          <stop offset="0.3382" style="stop-color:#65C0B7"/>
          <stop offset="0.9957" style="stop-color:#26A69A"/>
        </linearGradient>
        <path d="M40,112v-4v-1c0-3.87-3.13-7-7-7H19c-3.87,0-7,3.13-7,7v1v4H40z" style="fill:url(#SVGID_12_);"/>
        <g style="opacity:0.2;">
          <path d="M33,103c2.21,0,4,1.79,4,4v1v1H15v-1v-1c0-2.21,1.79-4,4-4H33 M33,100H19c-3.87,0-7,3.13-7,7v1v4 h28v-4v-1C40,103.13,36.87,100,33,100L33,100z" style="fill:#424242;"/>
        </g>
      </g>
      <linearGradient id="SVGID_13_" gradientUnits="userSpaceOnUse" x1="64" x2="64" y1="111" y2="118.8333">
        <stop offset="0" style="stop-color:#80CBC4"/>
        <stop offset="0.3397" style="stop-color:#65C0B7"/>
        <stop offset="1" style="stop-color:#26A69A"/>
      </linearGradient>
      <path d="M120,120H8v-8c0-2.21,1.79-4,4-4h104c2.21,0,4,1.79,4,4V120z" style="fill:url(#SVGID_13_);"/>
      <radialGradient id="SVGID_14_" cx="63.6667" cy="4.3333" gradientTransform="matrix(4.499940e-11 1 -1.2216 5.497282e-11 68.9604 -59.3333)" gradientUnits="userSpaceOnUse" r="53.2074">
        <stop offset="0" style="stop-color:#80CBC4"/>
        <stop offset="0.2139" style="stop-color:#7CC9C2"/>
        <stop offset="0.4239" style="stop-color:#70C5BD"/>
        <stop offset="0.6322" style="stop-color:#5DBCB3"/>
        <stop offset="0.8385" style="stop-color:#41B1A7"/>
        <stop offset="1" style="stop-color:#26A69A"/>
      </radialGradient>
      <path d="M56.42,5.79L6.21,30.89C4.86,31.57,4,32.96,4,34.47V40c0,2.21,1.79,4,4,4h112 c2.21,0,4-1.79,4-4v-5.53c0-1.52-0.86-2.9-2.21-3.58L71.58,5.79C69.22,4.61,66.63,4,64,4h0C61.37,4,58.78,4.61,56.42,5.79z" style="fill:url(#SVGID_14_);"/>
      <linearGradient id="SVGID_15_" gradientUnits="userSpaceOnUse" x1="64" x2="64" y1="3.8222" y2="48.3853">
        <stop offset="0" style="stop-color:#B2DFDB"/>
        <stop offset="0.3061" style="stop-color:#97D4CE"/>
        <stop offset="0.962" style="stop-color:#51B8AE"/>
        <stop offset="1" style="stop-color:#4DB6AC"/>
      </linearGradient>
      <path d="M106.53,32.21L68,12.94C66.76,12.32,65.39,12,64,12h0c-1.39,0-2.76,0.32-4,0.94 L21.47,32.21C19.58,33.15,20.25,36,22.36,36h83.28C107.75,36,108.42,33.15,106.53,32.21z" style="fill:url(#SVGID_15_);"/>
      <linearGradient id="SVGID_16_" gradientUnits="userSpaceOnUse" x1="64" x2="64" y1="115" y2="123.6923">
        <stop offset="0" style="stop-color:#80CBC4"/>
        <stop offset="0.2139" style="stop-color:#7CC9C2"/>
        <stop offset="0.4239" style="stop-color:#70C5BD"/>
        <stop offset="0.6322" style="stop-color:#5DBCB3"/>
        <stop offset="0.8385" style="stop-color:#41B1A7"/>
        <stop offset="1" style="stop-color:#26A69A"/>
      </linearGradient>
      <path d="M124,124H4v-4c0-2.21,1.79-4,4-4h112c2.21,0,4,1.79,4,4V124z" style="fill:url(#SVGID_16_);"/>
      <g style="opacity:0.2;">
        <path d="M116,111c0.55,0,1,0.45,1,1v4v3h3c0.55,0,1,0.45,1,1v1H7v-1c0-0.55,0.45-1,1-1h3v-3v-4 c0-0.55,0.45-1,1-1H116 M116,108H12c-2.21,0-4,1.79-4,4v4c-2.21,0-4,1.79-4,4v4h120v-4c0-2.21-1.79-4-4-4v-4 C120,109.79,118.21,108,116,108L116,108z" style="fill:#424242;"/>
      </g>
      <g style="opacity:0.2;">
        <path d="M64,7c2.15,0,4.31,0.51,6.24,1.47l50.21,25.11c0.34,0.17,0.55,0.51,0.55,0.89V40 c0,0.55-0.45,1-1,1H8c-0.55,0-1-0.45-1-1v-5.53c0-0.38,0.21-0.72,0.55-0.89L57.76,8.47C59.69,7.51,61.85,7,64,7 M64,4 c-2.63,0-5.22,0.61-7.58,1.79L6.21,30.89C4.86,31.57,4,32.96,4,34.47V40c0,2.21,1.79,4,4,4h112c2.21,0,4-1.79,4-4v-5.53 c0-1.52-0.86-2.9-2.21-3.58L71.58,5.79C69.22,4.61,66.63,4,64,4L64,4z" style="fill:#424242;"/>
      </g>
    </g>
  </g>
</svg>
